!!!OTL:Gottes Rath und Scheiden.
!!!OTL-incipit:NUR MUSST DU MICH AUCH RECHT VERSTEHN
!!!ARE: Europa, Mitteleuropa, Deutschland
!!!SCT: F0191A
!!!TXL: @@DE
!!!YEM: Copyright 1995, estate of Helmut Schaffrath.
**kern	**text
*ICvox	*
*clefG2	*
*M4/4	*
*k[f#c#]	*
*D:	*
{4a	Nur
=1	=1
4.g	mußt
8f#	du
4f#	mich
4dd/	auch
=2	=2
4.cc#/	recht
8b/	.
4b/;	versteh'n
4b/	ja
=3	=3
4.a	recht
8g	versteh'n,
4f#}	.
{4e	wenn
=4	=4
4dd/	Menschen
4cc#/	.
4.b/	ausein-
8an	.
=5	=5
4.a	-an-
8g#	-der
4g#}	gehn,
{4b/	so
=6	=6
4ee/	sa-
4dd/	-gen
4cc#/	sie:
8r	.
8b/	auf
=7	=7
4.b/;	Wiedersehen!
8a	.
4a;}	.
{4a	auf
=8	=8
4.e	We-
8g	-der-
4f#	-sehn!
4a	auf
=9	=9
2.e	Wie-
4g	-der-
=10	=10
2.f#;}	-sehn!
==	==
!!!AGN: Abschieds - Lied
!! Strohenvariante zu F0191
!!!ONB: ESAC (Essen Associative Code) Database: FINK
!!!AMT: simple quadruple
!!!AIN: vox
!!!EED: Helmut Schaffrath
!!!EEV: 1.0
!!!source: Musikalischer Hausschatz der Deutschen. Eine Sammlung von über 1000 Liedern und Gesängen mit Singstimmen und Klavierbegleitung. Leipzig, Litterarisches Verlags-Haus.
!!!page: 113
!!!ENC: Anna Maria Matuszewska
!!!EEV: 2025/03/11
*-	*-
